X:3
T:Martha Campbell [1]
N:From the playing of John Morgan Salyer (1882-1952, Salyersville, Magoffin County, eastern Ky.)
M:C|
L:1/8
R:Reel
D:Berea Sound Archives https://soundarchives.berea.edu/items/show/4258
Z:Transcribed by Andrew Kuntz
K:D
|:\
DEFD A,A,A,2 | D2D2 DEF[DA] | [M:3/2] BFAF DEFD BAF2 | [M:C|] ABde fafe | dBAF D2D2 :|
|:\
ABde f2d2 | ABde fd d2 | ABde fafe | dBAF D2D2 |
ABde f2d2 | ABde fd d2 | [M:3/2] ABde f2ba fdec | [M:C|] dBAF D2D2 :|
